<?xml version="1.0" encoding="UTF-8"?>
<map version="1.10" tiledversion="1.11.2" orientation="orthogonal" renderorder="right-down" width="8" height="7" tilewidth="32" tileheight="32" infinite="0" nextlayerid="2" nextobjectid="1">
 <tileset firstgid="1" source="atlas.tsx"/>
 <layer id="1" name="Tile Layer 1" width="8" height="7">
  <data encoding="csv">
1,1,2,3,4,1,5,6,
1,1,5,6,7,1,8,9,
3,3,11,6,7,1,1,1,
9,10,5,6,7,1,1,1,
1,1,5,6,7,1,2,4,
1,1,5,6,7,1,8,10,
1,1,8,9,10,1,1,1
</data>
 </layer>
</map>
